src/images/svg/star.svg

<svg width="20.000000" height="20.000000" viewBox="0 0 20 20" fill="none" xmlns="http://www.w3.org/2000/svg" xmlns:xlink="http://www.w3.org/1999/xlink">
	<desc>
			Created with Pixso.
	</desc>
	<defs>
		<clipPath id="clip9_567">
			<rect id="star" width="20.000000" height="20.000000" transform="translate(-0.500000 -0.904297)" fill="white" fill-opacity="0"/>
		</clipPath>
	</defs>
	<g clip-path="url(#clip9_567)">
		<path id="Icon" d="M9.59 1.61C9.49 1.57 9.36 1.59 9.29 1.74L7.5 5.52C7.26 6.04 6.77 6.41 6.19 6.5L2.2 7.11C2.16 7.11 2.11 7.14 2.07 7.18C1.97 7.29 1.97 7.49 2.08 7.6L4.97 10.54C5.37 10.95 5.55 11.54 5.46 12.1L4.77 16.26C4.76 16.33 4.77 16.39 4.8 16.45C4.87 16.59 5.01 16.62 5.1 16.56L8.67 14.6C9.19 14.32 9.8 14.32 10.32 14.6L13.89 16.56C13.93 16.59 13.98 16.6 14.02 16.59C14.08 16.58 14.15 16.54 14.2 16.47C14.25 16.4 14.27 16.33 14.26 16.26L13.53 12.1C13.44 11.54 13.62 10.95 14.02 10.54L16.91 7.6C16.95 7.56 16.98 7.5 16.99 7.43C17.02 7.25 16.89 7.12 16.79 7.11L12.8 6.5C12.22 6.41 11.73 6.04 11.49 5.52L9.7 1.74C9.67 1.68 9.63 1.64 9.59 1.61ZM7.93 1.1C8.35 0.22 9.39 -0.17 10.28 0.28C10.62 0.46 10.89 0.75 11.06 1.1L12.84 4.88C12.88 4.96 12.96 5.01 13.02 5.02L17.01 5.62C17.99 5.77 18.61 6.7 18.48 7.64C18.42 8.02 18.25 8.37 17.98 8.65L15.09 11.59C15.03 11.65 15 11.75 15.01 11.86L15.74 16.01C15.9 16.99 15.21 17.9 14.28 18.06C13.9 18.13 13.5 18.07 13.16 17.88L9.59 15.92C9.53 15.88 9.46 15.88 9.4 15.92L5.83 17.88C4.96 18.36 3.9 17.99 3.46 17.13C3.29 16.78 3.23 16.39 3.29 16.01L3.98 11.86C3.99 11.75 3.96 11.65 3.9 11.59L1.01 8.65C0.34 7.97 0.32 6.86 0.98 6.16C1.24 5.87 1.59 5.68 1.98 5.62L5.97 5.02C6.03 5.01 6.1 4.96 6.15 4.88L7.93 1.1Z" fill="#FFFFFF" fill-opacity="1.000000" fill-rule="evenodd"/>
	</g>
</svg>

<svg viewBox="0 0 20 20" fill="none" xmlns="http://www.w3.org/2000/svg"><defs><clipPath id="a"><path fill="#fff" fill-opacity="0" d="M-.5-.9h20v20h-20z"/></clipPath></defs><g clip-path="url(#a)"><path d="m9.6 1.6-.3.1-1.8 3.8q-.4.9-1.3 1l-4 .6h-.1v.5l2.9 3q.6.6.5 1.5l-.7 4.2v.1q0 .3.3.2l3.6-2q.8-.5 1.6 0l3.6 2h.1l.2-.1v-.2l-.7-4.2q0-1 .5-1.6l3-2.9v-.2q0-.3-.2-.3l-4-.6q-.9-.1-1.3-1L9.7 1.7zm-1.7-.5C8.3.2 9.4-.2 10.3.3l.8.8 1.7 3.8.2.1 4 .6q1.6.5 1.5 2 0 .6-.5 1l-3 3v.3l.7 4.1q.1 1.7-1.4 2-.6.1-1.1-.1l-3.6-2h-.2l-3.6 2c-.8.5-1.9 0-2.3-.8q-.3-.5-.2-1l.7-4.2-.1-.3-2.9-3a1.8 1.8 0 0 1 1-3L6 5l.2-.1z" fill="#FFF" fill-rule="evenodd"/></g></svg>
